src/assets/logo-tweaks/progress.svg

<svg width="26" height="26" viewBox="0 0 26 26" fill="none" xmlns="http://www.w3.org/2000/svg">
<g clip-path="url(#clip0)">
<mask id="mask0" mask-type="alpha" maskUnits="userSpaceOnUse" x="0" y="0" width="26" height="27">
<path fill-rule="evenodd" clip-rule="evenodd" d="M2.81103 0.18182C1.25842 0.18182 0 1.44018 0 2.99244V19.2393C0 20.7917 1.25854 22.0499 2.81103 22.0499H9.05065L13.028 26.0273L17.0053 22.0499H23.189C24.7416 22.0499 26 20.7916 26 19.2393V2.99244C26 1.44007 24.7415 0.18182 23.189 0.18182H2.81103Z" fill="#C4C4C4"/>
</mask>
<g mask="url(#mask0)">
<path d="M34.6877 22.1951H0.00778198V-3.8147e-06H34.6877V22.1951Z" fill="#750787"/>
<path d="M34.6877 22.1951H0.00778198V3.69919H34.6877V22.1951Z" fill="#004DFF"/>
<path d="M34.6877 22.1951H0.00778198V7.39837H34.6877V22.1951Z" fill="#008026"/>
<path d="M34.6877 22.1951H0.00778198V11.0976H34.6877V22.1951Z" fill="#FFED00"/>
<path d="M34.6877 22.1951H0.00778198V14.7967H34.6877V22.1951Z" fill="#FF8C00"/>
<path d="M35 27H0V19H35V27Z" fill="#E40303"/>
<path d="M0.000488281 16.6026L5.49725 11.0976L0.000488281 5.59247V16.6026Z" fill="white"/>
<path d="M0.000488281 16.6026V19.3989L8.21384 11.0976L0.000488281 2.79623V5.59247L5.49725 11.0976L0.000488281 16.6026Z" fill="#FFAFC8"/>
<path d="M0 19.3989V22.1951L11.0571 11.0976L0 -3.8147e-06V2.79623L8.21335 11.0976L0 19.3989Z" fill="#74D7EE"/>
<path d="M0 22.1951L11.0571 11.0976L0 -3.8147e-06H2.78017L13.7852 11.0976L2.78017 22.1951H0Z" fill="#613915"/>
<path d="M2.78073 22.1951H5.55512L16.5602 11.0976L5.55512 -3.8147e-06H2.78073L13.7858 11.0976L2.78073 22.1951Z" fill="black"/>
</g>
</g>
<defs>
<clipPath id="clip0">
<rect width="26" height="26" fill="white"/>
</clipPath>
</defs>
</svg>

<svg fill="none" xmlns="http://www.w3.org/2000/svg" viewBox="0 0 26 26">
  <g clip-path="url(#progress__clip0)">
    <path d="M34.688 22.195H.008V0h34.68v22.195z" fill="#750787"/>
    <path d="M34.688 22.195H.008V3.7h34.68v18.496z" fill="#004DFF"/>
    <path d="M34.688 22.195H.008V7.398h34.68v14.797z" fill="#008026"/>
    <path d="M34.688 22.195H.008V11.098h34.68v11.097z" fill="#FFED00"/>
    <path d="M34.688 22.195H.008v-7.398h34.68v7.398z" fill="#FF8C00"/>
    <path d="M35 27H0v-8h35v8z" fill="#E40303"/>
    <path d="M0 16.603l5.497-5.505L0 5.592v11.01z" fill="#fff"/>
    <path d="M0 16.603v2.796l8.214-8.301L0 2.796v2.796l5.497 5.506L0 16.603z" fill="#FFAFC8"/>
    <path d="M0 19.399v2.796l11.057-11.097L0 0v2.796l8.213 8.302L0 19.398z" fill="#74D7EE"/>
    <path d="M0 22.195l11.057-11.097L0 0h2.78l11.005 11.098L2.78 22.195H0z" fill="#613915"/>
    <path d="M2.78 22.195h2.775L16.56 11.098 5.555 0H2.781l11.005 11.098L2.78 22.195z" fill="#000"/>
  </g>
  <defs>
    <clipPath id="progress__clip0">
      <path fill="#fff" d="M0 0h26v26H0z"/>
    </clipPath>
  </defs>
</svg>
